src/assets/duotone/Cards.svg

<svg width="24" height="24" viewBox="0 0 24 24"  xmlns="http://www.w3.org/2000/svg">
<path opacity="0.4" d="M19 10.28V17.43C18.97 20.28 18.19 21 15.22 21H5.78003C2.76003 21 2 20.25 2 17.27V10.28C2 7.57999 2.63 6.70999 5 6.56999C5.24 6.55999 5.50003 6.54999 5.78003 6.54999H15.22C18.24 6.54999 19 7.29999 19 10.28Z" />
<path d="M22 6.73V13.72C22 16.42 21.37 17.29 19 17.43V10.28C19 7.3 18.24 6.55 15.22 6.55H5.78003C5.50003 6.55 5.24 6.56 5 6.57C5.03 3.72 5.81003 3 8.78003 3H18.22C21.24 3 22 3.75 22 6.73Z" />
<path d="M6.96027 18.56H5.24023C4.83023 18.56 4.49023 18.22 4.49023 17.81C4.49023 17.4 4.83023 17.06 5.24023 17.06H6.96027C7.37027 17.06 7.71027 17.4 7.71027 17.81C7.71027 18.22 7.38027 18.56 6.96027 18.56Z" />
<path d="M12.5499 18.56H9.10986C8.69986 18.56 8.35986 18.22 8.35986 17.81C8.35986 17.4 8.69986 17.06 9.10986 17.06H12.5499C12.9599 17.06 13.2999 17.4 13.2999 17.81C13.2999 18.22 12.9699 18.56 12.5499 18.56Z" />
<path d="M19 11.86H2V13.36H19V11.86Z" />
</svg>

<?xml version="1.0" encoding="UTF-8"?>
<svg width="24" height="24" viewBox="0 0 24 24" xmlns="http://www.w3.org/2000/svg">
 <path d="m19 10.28v7.15c-0.03 2.85-0.81 3.57-3.78 3.57h-9.44c-3.02 0-3.78-0.75-3.78-3.73v-6.99c0-2.7 0.63-3.57 3-3.71 0.24-0.01 0.50003-0.02 0.78003-0.02h9.44c3.02 0 3.78 0.75 3.78 3.73z" opacity=".4"/>
 <path d="m22 6.73v6.99c0 2.7-0.63 3.57-3 3.71v-7.15c0-2.98-0.76-3.73-3.78-3.73h-9.44c-0.28 0-0.54003 0.01-0.78003 0.02 0.03-2.85 0.81003-3.57 3.78-3.57h9.44c3.02 0 3.78 0.75 3.78 3.73z"/>
 <path d="m6.9603 18.56h-1.72c-0.41 0-0.75-0.34-0.75-0.75s0.34-0.75 0.75-0.75h1.72c0.41 0 0.75 0.34 0.75 0.75s-0.33 0.75-0.75 0.75z"/>
 <path d="m12.55 18.56h-3.44c-0.41 0-0.75-0.34-0.75-0.75s0.34-0.75 0.75-0.75h3.44c0.41 0 0.75 0.34 0.75 0.75s-0.33 0.75-0.75 0.75z"/>
 <path d="m19 11.86h-17v1.5h17v-1.5z"/>
</svg>
